X:1
T: Miss Mary Macdonald of Clanranald's Reel
C:R. Mackintosh
R:Reel
Q: 232
K:Dm
M:4/4
L:1/8
|:A|d1/2d1/2d Ad FD D^c|df Ac EC C^c|d2 Ad FA df|eg Aa fd dA|
d1/2d1/2d Ad FD D^c|df Ac EC C^c|d2 Ad FA df|eg Aa fd de|
fd ad Aa fd|ec gc Gc eg|fd ad Aa fd|eg Aa fd de|
fd ad Aa fd|ec gc Gc eg|fd ge af bg|af ge fd d:|
